src/svg/acciones/accion-scout-perfil.svg

<?xml version="1.0" encoding="UTF-8" standalone="no"?>
<!-- Generado por Andres Lacquaniti  -->

<svg
   xmlns:dc="http://purl.org/dc/elements/1.1/"
   xmlns:cc="http://creativecommons.org/ns#"
   xmlns:rdf="http://www.w3.org/1999/02/22-rdf-syntax-ns#"
   xmlns:svg="http://www.w3.org/2000/svg"
   xmlns="http://www.w3.org/2000/svg"
   xmlns:sodipodi="http://sodipodi.sourceforge.net/DTD/sodipodi-0.dtd"
   xmlns:inkscape="http://www.inkscape.org/namespaces/inkscape"
   version="1.1"
   id="Layer_1"
   x="0px"
   y="0px"
   width="15px"
   height="15px"
   viewBox="0 0 15 15"
   style="enable-background:new 0 0 15 15;"
   xml:space="preserve"
   sodipodi:docname="scout-perfil.svg"
   inkscape:version="0.92.0 r15299"><metadata
     id="metadata9"><rdf:RDF><cc:Work
         rdf:about=""><dc:format>image/svg+xml</dc:format><dc:type
           rdf:resource="http://purl.org/dc/dcmitype/StillImage" /><dc:title /></cc:Work></rdf:RDF></metadata><defs
     id="defs7" /><sodipodi:namedview
     pagecolor="#ffffff"
     bordercolor="#666666"
     borderopacity="1"
     objecttolerance="10"
     gridtolerance="10"
     guidetolerance="10"
     inkscape:pageopacity="0"
     inkscape:pageshadow="2"
     inkscape:window-width="1920"
     inkscape:window-height="996"
     id="namedview5"
     showgrid="false"
     inkscape:zoom="31.466666"
     inkscape:cx="26.887165"
     inkscape:cy="3.2202809"
     inkscape:window-x="-8"
     inkscape:window-y="-8"
     inkscape:window-maximized="1"
     inkscape:current-layer="Layer_1"
     showguides="true"
     inkscape:guide-bbox="true"><sodipodi:guide
       position="-55.296611,-16.271187"
       orientation="1,0"
       id="guide862"
       inkscape:locked="false" /></sodipodi:namedview><path
     id="path4574-9"
     style="display:inline;fill:#000000;stroke-width:0.03927594"
     d="m 3.9439982,3.7226863 v 0 c -0.016958,-8.116e-4 -0.033772,8.114e-4 -0.047695,0.00421 -0.09034,0.025328 -0.560171,0.5665859 -0.729305,0.8429339 -0.09034,0.1477353 -0.2144288,0.4544754 -0.2591703,0.6419716 -0.025329,0.1025707 -0.021098,0.1051017 0.2519946,0.1511125 0.152369,0.025325 0.4749038,0.060781 0.7166399,0.077666 0.2418644,0.016887 0.5543443,0.025325 0.6947753,0.016887 0.7369445,-0.042212 1.0118997,-0.065003 1.0582905,-0.093706 0.042215,-0.025325 0.042215,-0.070069 0.00178,-0.2422843 C 5.5705332,4.8623079 5.5131269,4.7453857 5.2898338,4.4239575 5.0327751,4.053777 4.7617452,3.7523124 4.6638191,3.7277455 4.616534,3.7150897 4.5135564,3.7361886 4.4354619,3.7737544 4.3003895,3.8379151 4.285199,3.8379151 4.1399915,3.7721312 4.0749811,3.7425838 3.9994392,3.7244338 3.9437145,3.7227434 Z m 0.8407381,0.6186708 c 0.012673,0 0.079344,0.1194552 0.1443543,0.2650799 0.065421,0.1456236 0.1650428,0.3136194 0.2216011,0.3731366 0.092857,0.097082 0.095391,0.108056 0.025329,0.1067904 C 5.0548719,5.0847412 4.9675043,5.0154506 4.8873034,4.8588535 4.8109046,4.7090067 4.7366121,4.3414424 4.78263,4.3414424 Z M 3.7648575,4.379345 c 0.00429,0 0.00839,0.00421 0.00839,0.012655 0.029542,0.1135449 -0.1051016,0.5026372 -0.2055608,0.603181 -0.051926,0.051917 -0.1333766,0.094126 -0.1819254,0.094126 -0.087377,0 -0.087377,-4.057e-4 0.012673,-0.1080559 0.056139,-0.059513 0.1591345,-0.2317312 0.2292,-0.3828429 C 3.6943225,4.4548946 3.7407509,4.3793375 3.7614392,4.3793375 Z M 1.4675398,5.4475539 C 1.3130466,5.4467426 1.1902195,5.4644406 1.1247915,5.4965165 0.97326137,5.5750274 0.9192307,5.6678908 0.9192307,5.8493914 c 0,0.1097464 0.0253294,0.155334 0.1270575,0.2283566 0.2777433,0.198809 0.6548444,0.3115093 1.2307589,0.3672264 0.2625457,0.025325 0.2802746,0.033767 0.3220618,0.1447793 0.042215,0.1076365 0.033772,0.1257865 -0.070919,0.2144287 -0.063315,0.053182 -0.1355007,0.164618 -0.1604018,0.2473483 -0.037985,0.1278965 -0.033772,0.1726398 0.029542,0.2988475 0.1025665,0.2059828 0.2414414,0.2975796 0.4522805,0.2975796 0.1701122,0 0.1768596,0.00421 0.2811171,0.203873 0.21696,0.4140796 0.5637586,0.7243675 0.9117353,0.8152866 0.1633468,0.042631 0.4279669,0.00845 0.6220911,-0.076823 C 4.8882666,8.4898355 5.2215151,8.1397449 5.3499168,7.8696008 5.4558578,7.6467343 5.457125,7.6458903 5.6344111,7.6437783 5.9294585,7.6402471 6.1046312,7.4487691 6.1046312,7.1291974 6.1046312,6.9966581 6.0793017,6.9417843 5.9725221,6.83415 5.840824,6.7024565 5.840824,6.7020317 5.9092082,6.5889095 5.9704164,6.4884504 6.0062952,6.4728333 6.2278926,6.4521503 6.8862411,6.3905225 7.4484359,6.201 7.6075256,5.9864901 7.674214,5.8970054 7.6784444,5.8645037 7.6412981,5.7458918 7.5572953,5.4913676 7.4880723,5.461398 6.9957804,5.4660419 6.6277081,5.4695763 6.4741483,5.4913678 6.0279046,5.6099768 5.168931,5.8370655 4.5641045,5.8978486 3.7901013,5.8353774 3.2510777,5.7919016 3.0497794,5.7551784 2.3949351,5.5808515 2.0749832,5.4955865 1.7283559,5.4487333 1.4707492,5.4474678 Z m 1.8006329,1.0848383 v 0 c 0.029542,-4.058e-4 0.057406,4.059e-4 0.087806,0.00254 0.214427,0.012655 0.2182255,0.016887 0.2021835,0.124098 -0.025329,0.1646178 0.051926,0.2760518 0.1878357,0.2760518 0.1371786,0 0.2118959,-0.1118563 0.1874107,-0.2794296 L 3.9164502,6.5425269 h 0.3203749 0.3203732 l -0.016958,0.1131202 c -0.025329,0.1658852 0.05023,0.2794297 0.184037,0.2794297 0.1473176,0 0.2123154,-0.085686 0.1924767,-0.2545262 L 4.8997967,6.5425259 h 0.2080956 c 0.114384,0 0.2216028,-4.057e-4 0.2376412,-8.116e-4 0.016958,-4.057e-4 0.033772,0.08653 0.042215,0.1924772 0.00839,0.1696856 0.025329,0.196277 0.1118491,0.2182246 0.055299,0.012655 0.1240945,0.00421 0.1536365,-0.021104 0.042215,-0.033769 0.075971,-0.021106 0.153226,0.055295 0.1274681,0.1266309 0.1270575,0.2372185 0,0.3646926 C 5.7064281,7.4513395 5.6443807,7.457247 5.4160146,7.3892923 5.3493267,7.3681852 5.3197846,7.4061774 5.2218513,7.6252435 5.063556,7.9823403 4.8795278,8.2098934 4.6380024,8.3483838 H 4.6373938 C 4.2672114,8.5607005 3.918685,8.4851465 3.5772878,8.1183392 3.4050694,7.93346 3.1568787,7.4953634 3.1568787,7.3764163 c 0,-0.063737 -0.042215,-0.060362 -0.1350723,0.012656 -0.042215,0.033769 -0.1257901,0.057828 -0.1865664,0.057828 -0.2389103,0 -0.3570964,-0.3064435 -0.1815042,-0.4697968 0.099621,-0.09286 0.1245228,-0.096661 0.2237127,-0.033767 0.1257902,0.078511 0.2000755,0.012655 0.2017641,-0.1717955 4.052e-4,-0.092439 0.012673,-0.1861451 0.029542,-0.2085167 0.012673,-0.016887 0.076828,-0.029545 0.1595627,-0.029545 z m 0.409858,1.0240146 c -0.021098,6.087e-4 -0.029542,0.012655 -0.037985,0.029545 -0.029542,0.081888 0.097087,0.203875 0.2857617,0.27141 0.084413,0.029547 0.229198,0.055717 0.3216388,0.056564 0.2625475,0.00254 0.5976506,-0.1650446 0.5976506,-0.2988474 0,-0.076401 -0.073026,-0.065003 -0.2912487,0.045586 C 4.3018552,7.7885608 4.1558067,7.7843411 3.8852017,7.6437781 3.767444,7.581729 3.709181,7.5555589 3.6766811,7.556828 Z M 3.022217,7.877622 c -0.054871,0 -0.2296229,0.1806613 -0.2916718,0.3018015 -0.025329,0.047276 -0.044322,0.1384495 -0.044322,0.2026089 0,0.1713707 0.4936877,0.6214159 0.9108909,0.8302269 0.237643,0.1190321 0.2899815,0.1582882 0.2106268,0.1582882 -0.1604017,0 -0.5125124,0.1831912 -0.6472064,0.3364149 -0.06626,0.075554 -0.1557606,0.2068268 -0.1992276,0.2916697 -0.082308,0.1612409 -0.1962787,0.5542599 -0.1962787,0.6760779 0,0.03798 0.012674,0.07006 0.025329,0.07006 0.012673,0 0.2207585,-0.101731 0.4610147,-0.225824 0.3300841,-0.170524 0.502174,-0.289977 0.705077,-0.48866 L 4.2249048,9.7677436 4.460013,10.000744 c 0.1291639,0.128318 0.3532996,0.303068 0.4979503,0.388753 0.3056022,0.18108 0.6973529,0.35963 0.7258863,0.331348 C 5.7133917,10.691298 5.6015424,10.24328 5.5124701,10.041602 5.3659915,9.7098313 4.939217,9.3763317 4.6513883,9.3689447 4.5754179,9.3673217 4.5969274,9.3478387 4.7451017,9.2887458 5.150315,9.1245491 5.7599967,8.6179447 5.7990832,8.4133941 5.8244126,8.2838108 5.7475855,8.1191905 5.5981652,7.9785049 5.491796,7.878469 5.467734,7.8704489 5.4230014,7.9194119 5.3934594,7.9489593 5.3491374,8.0532186 5.3225406,8.1465005 5.2587976,8.3710568 5.1051612,8.5289226 4.6330008,8.8546153 L 4.2417125,9.1243366 3.8339645,8.8461728 C 3.3554316,8.5198899 3.2695759,8.4270272 3.154933,8.1126067 3.1076479,7.9834447 3.0485638,7.8779203 3.0232345,7.8779203 Z m 1.2205433,1.3746535 c 0.177288,0 0.2351082,0.2262445 0.084413,0.331769 -0.048124,0.033769 -0.10089,0.061205 -0.1177577,0.061205 -0.050659,0 -0.1878337,-0.1532223 -0.1878337,-0.209783 0,-0.075556 0.1300027,-0.1827691 0.2211815,-0.1827691 z M 8.5969574,9.594336 h 5.1409946 c 0.116027,0 0.209447,0.093415 0.209447,0.209448 v 0.342733 c 0,0.116033 -0.09341,0.209448 -0.209447,0.209448 H 8.5969574 c -0.1160441,0 -0.2094469,-0.09342 -0.2094469,-0.209448 V 9.803784 c 0,-0.1160332 0.09341,-0.209448 0.2094469,-0.209448 z m 0.019046,-1.7620612 h 5.1029136 c 0.126575,0 0.228487,0.1019068 0.228487,0.2284903 v 0.30465 c 0,0.1265826 -0.101908,0.2284882 -0.228487,0.2284882 H 8.6160034 c -0.1265755,0 -0.2284893,-0.1019048 -0.2284893,-0.2284882 v -0.30465 c 0,-0.1265827 0.1019069,-0.2284903 0.2284893,-0.2284903 z M 8.5398367,6.137991 h 5.2552403 c 0.08438,0 0.152333,0.067937 0.152333,0.1523244 v 0.4569768 c 0,0.084387 -0.06793,0.1523263 -0.152333,0.1523263 H 8.5398367 c -0.084396,0 -0.1523333,-0.06794 -0.1523333,-0.1523263 V 6.2903167 c 0,-0.084388 0.067938,-0.1523245 0.1523333,-0.1523257 z m 0.00945,-1.8298373 H 13.78549 c 0.08966,0 0.161847,0.072185 0.161847,0.1618459 v 0.4379365 c 0,0.089664 -0.07218,0.1618458 -0.161847,0.1618458 H 8.5492974 c -0.089662,0 -0.1618475,-0.072183 -0.1618475,-0.1618458 V 4.4699996 c 0,-0.089661 0.072186,-0.1618459 0.1618475,-0.1618459 z M 1.2324655,3.1208849 c -0.63150172,0 -1.14675782,0.6329334 -1.14675782,1.408916 v 5.4838461 c 0,0.775983 0.5152561,1.408969 1.14675782,1.408969 H 13.752739 c 0.631504,0 1.146759,-0.632986 1.146761,-1.408969 V 4.5298009 c 0,-0.7759826 -0.515257,-1.408916 -1.146761,-1.408916 z m -5.35e-5,0.2665185 h 12.52036 c 0.515072,0 0.929736,0.5095352 0.929736,1.1424503 v 5.4836903 c 0,0.632914 -0.414664,1.14245 -0.929736,1.14245 H 1.232412 c -0.51506877,0 -0.92973543,-0.509536 -0.92973543,-1.14245 V 4.5298537 c 0,-0.6329151 0.41466666,-1.1424503 0.92973543,-1.1424503 z"
     inkscape:connector-curvature="0"
     sodipodi:nodetypes="ccccccccccccccccccccccccccsccccccsccccccscccccscccccccccccccccscccccsccscccccccccccscsccccccccccsccccccscsccsscccccccccccccccccccccssccsssssssssssssssssscsssssssccsssssssccssssscssssssssssss" /></svg>

<svg width="15px" height="15px" enable-background="new 0 0 15 15" version="1.1" viewBox="0 0 15 15" xmlns="http://www.w3.org/2000/svg">
 <path d="m3.944 3.7227c-0.016958-8.116e-4 -0.033772 8.114e-4 -0.047695 0.00421-0.09034 0.025328-0.56017 0.56659-0.7293 0.84293-0.09034 0.14774-0.21443 0.45448-0.25917 0.64197-0.025329 0.10257-0.021098 0.1051 0.25199 0.15111 0.15237 0.025325 0.4749 0.060781 0.71664 0.077666 0.24186 0.016887 0.55434 0.025325 0.69478 0.016887 0.73694-0.042212 1.0119-0.065003 1.0583-0.093706 0.042215-0.025325 0.042215-0.070069 0.00178-0.24228-0.060775-0.25917-0.11818-0.37609-0.34147-0.69752-0.25706-0.37018-0.52809-0.67165-0.62601-0.69621-0.047285-0.012656-0.15026 0.0084431-0.22836 0.046009-0.13507 0.064161-0.15026 0.064161-0.29547-0.0016232-0.06501-0.029547-0.14055-0.047697-0.19628-0.049388zm0.84074 0.61867c0.012673 0 0.079344 0.11946 0.14435 0.26508 0.065421 0.14562 0.16504 0.31362 0.2216 0.37314 0.092857 0.097082 0.095391 0.10806 0.025329 0.10679-0.12115-0.0016228-0.20852-0.070913-0.28872-0.22751-0.076399-0.14985-0.15069-0.51741-0.10467-0.51741zm-1.0199 0.037988c0.00429 0 0.00839 0.00421 0.00839 0.012655 0.029542 0.11354-0.1051 0.50264-0.20556 0.60318-0.051926 0.051917-0.13338 0.094126-0.18193 0.094126-0.087377 0-0.087377-4.057e-4 0.012673-0.10806 0.056139-0.059513 0.15913-0.23173 0.2292-0.38284 0.066688-0.14351 0.11312-0.21907 0.1338-0.21907zm-2.2973 1.0682c-0.15449-8.113e-4 -0.27732 0.016887-0.34275 0.048963-0.15153 0.078511-0.20556 0.17137-0.20556 0.35287 0 0.10975 0.025329 0.15533 0.12706 0.22836 0.27774 0.19881 0.65484 0.31151 1.2308 0.36723 0.26255 0.025325 0.28027 0.033767 0.32206 0.14478 0.042215 0.10764 0.033772 0.12579-0.070919 0.21443-0.063315 0.053182-0.1355 0.16462-0.1604 0.24735-0.037985 0.1279-0.033772 0.17264 0.029542 0.29885 0.10257 0.20598 0.24144 0.29758 0.45228 0.29758 0.17011 0 0.17686 0.00421 0.28112 0.20387 0.21696 0.41408 0.56376 0.72437 0.91174 0.81529 0.16335 0.042631 0.42797 0.00845 0.62209-0.076823 0.22371-0.10046 0.55696-0.45055 0.68536-0.72069 0.10594-0.22287 0.10721-0.22371 0.28449-0.22582 0.29505-0.0035312 0.47022-0.19501 0.47022-0.51458 0-0.13254-0.02533-0.18741-0.13211-0.29505-0.1317-0.13169-0.1317-0.13212-0.063314-0.24524 0.061208-0.10046 0.097087-0.11608 0.31868-0.13676 0.65835-0.061628 1.2205-0.25115 1.3796-0.46566 0.066688-0.089485 0.070919-0.12199 0.033772-0.2406-0.084003-0.25452-0.15323-0.28449-0.64552-0.27985-0.36807 0.0035344-0.52163 0.025326-0.96788 0.14393-0.85897 0.22709-1.4638 0.28787-2.2378 0.2254-0.53902-0.043476-0.74032-0.080199-1.3952-0.25453-0.31995-0.085265-0.66658-0.13212-0.92419-0.13338zm1.8006 1.0848c0.029542-4.058e-4 0.057406 4.059e-4 0.087806 0.00254 0.21443 0.012655 0.21823 0.016887 0.20218 0.1241-0.025329 0.16462 0.051926 0.27605 0.18784 0.27605 0.13718 0 0.2119-0.11186 0.18741-0.27943l-0.016958-0.11313h0.64075l-0.016958 0.11312c-0.025329 0.16589 0.05023 0.27943 0.18404 0.27943 0.14732 0 0.21232-0.085686 0.19248-0.25453l-0.016957-0.13802h0.2081c0.11438 0 0.2216-4.057e-4 0.23764-8.116e-4 0.016958-4.057e-4 0.033772 0.08653 0.042215 0.19248 0.00839 0.16969 0.025329 0.19628 0.11185 0.21822 0.055299 0.012655 0.12409 0.00421 0.15364-0.021104 0.042215-0.033769 0.075971-0.021106 0.15323 0.055295 0.12747 0.12663 0.12706 0.23722 0 0.36469-0.10003 0.10004-0.16208 0.10595-0.39045 0.037993-0.066688-0.021107-0.09623 0.016885-0.19416 0.23595-0.1583 0.3571-0.34232 0.58465-0.58385 0.72314h-6.086e-4c-0.37018 0.21232-0.71871 0.13676-1.0601-0.23004-0.17222-0.18488-0.42041-0.62298-0.42041-0.74192 0-0.063737-0.042215-0.060362-0.13507 0.012656-0.042215 0.033769-0.12579 0.057828-0.18657 0.057828-0.23891 0-0.3571-0.30644-0.1815-0.4698 0.099621-0.09286 0.12452-0.096661 0.22371-0.033767 0.12579 0.078511 0.20008 0.012655 0.20176-0.1718 4.052e-4 -0.092439 0.012673-0.18615 0.029542-0.20852 0.012673-0.016887 0.076828-0.029545 0.15956-0.029545zm0.40986 1.024c-0.021098 6.087e-4 -0.029542 0.012655-0.037985 0.029545-0.029542 0.081888 0.097087 0.20388 0.28576 0.27141 0.084413 0.029547 0.2292 0.055717 0.32164 0.056564 0.26255 0.00254 0.59765-0.16504 0.59765-0.29885 0-0.076401-0.073026-0.065003-0.29125 0.045586-0.25199 0.1279-0.39804 0.12368-0.66865-0.016886-0.11776-0.062049-0.17602-0.088219-0.20852-0.08695zm-0.65581 0.32122c-0.054871 0-0.22962 0.18066-0.29167 0.3018-0.025329 0.047276-0.044322 0.13845-0.044322 0.20261 0 0.17137 0.49369 0.62142 0.91089 0.83023 0.23764 0.11903 0.28998 0.15829 0.21063 0.15829-0.1604 0-0.51251 0.18319-0.64721 0.33641-0.06626 0.075554-0.15576 0.20683-0.19923 0.29167-0.082308 0.16124-0.19628 0.55426-0.19628 0.67608 0 0.03798 0.012674 0.07006 0.025329 0.07006 0.012673 0 0.22076-0.10173 0.46101-0.22582 0.33008-0.17052 0.50217-0.28998 0.70508-0.48866l0.26846-0.26254 0.23511 0.233c0.12916 0.12832 0.3533 0.30307 0.49795 0.38875 0.3056 0.18108 0.69735 0.35963 0.72589 0.33135 0.029542-0.029547-0.082307-0.47756-0.17138-0.67924-0.14648-0.33177-0.57325-0.66527-0.86108-0.67266-0.07597-0.001623-0.054461-0.021106 0.093713-0.080199 0.40521-0.1642 1.0149-0.6708 1.054-0.87535 0.025329-0.12958-0.051498-0.2942-0.20092-0.43489-0.10637-0.10004-0.13043-0.10806-0.17516-0.059093-0.029542 0.029547-0.073864 0.13381-0.10046 0.22709-0.063743 0.22456-0.21738 0.38242-0.68954 0.70811l-0.39129 0.26972-0.40775-0.27816c-0.47853-0.32628-0.56439-0.41915-0.67903-0.73357-0.047285-0.12916-0.10637-0.23469-0.1317-0.23469zm1.2205 1.3747c0.17729 0 0.23511 0.22624 0.084413 0.33177-0.048124 0.033769-0.10089 0.061205-0.11776 0.061205-0.050659 0-0.18783-0.15322-0.18783-0.20978 0-0.075556 0.13-0.18277 0.22118-0.18277zm4.3542 0.34206h5.141c0.11603 0 0.20945 0.093415 0.20945 0.20945v0.34273c0 0.11603-0.09341 0.20945-0.20945 0.20945h-5.141c-0.11604 0-0.20945-0.09342-0.20945-0.20945v-0.34273c0-0.11603 0.09341-0.20945 0.20945-0.20945zm0.019046-1.7621h5.1029c0.12658 0 0.22849 0.10191 0.22849 0.22849v0.30465c0 0.12658-0.10191 0.22849-0.22849 0.22849h-5.1029c-0.12658 0-0.22849-0.1019-0.22849-0.22849v-0.30465c0-0.12658 0.10191-0.22849 0.22849-0.22849zm-0.076167-1.6943h5.2552c0.08438 0 0.15233 0.067937 0.15233 0.15232v0.45698c0 0.084387-0.06793 0.15233-0.15233 0.15233h-5.2552c-0.084396 0-0.15233-0.06794-0.15233-0.15233v-0.45698c0-0.084388 0.067938-0.15232 0.15233-0.15233zm0.00945-1.8298h5.2362c0.08966 0 0.16185 0.072185 0.16185 0.16185v0.43794c0 0.089664-0.07218 0.16185-0.16185 0.16185h-5.2362c-0.089662 0-0.16185-0.072183-0.16185-0.16185v-0.43794c0-0.089661 0.072186-0.16185 0.16185-0.16185zm-7.3168-1.1873c-0.6315 0-1.1468 0.63293-1.1468 1.4089v5.4838c0 0.77598 0.51526 1.409 1.1468 1.409h12.52c0.6315 0 1.1468-0.63299 1.1468-1.409v-5.4838c0-0.77598-0.51526-1.4089-1.1468-1.4089zm-5.35e-5 0.26652h12.52c0.51507 0 0.92974 0.50954 0.92974 1.1425v5.4837c0 0.63291-0.41466 1.1424-0.92974 1.1424h-12.52c-0.51507 0-0.92974-0.50954-0.92974-1.1424v-5.4837c0-0.63292 0.41467-1.1425 0.92974-1.1425z" stroke-width=".039276"/>
</svg>
